actions/22/go-previous.svg

<svg xmlns="http://www.w3.org/2000/svg" viewBox="0 0 22 22">
  <defs id="defs3051">
    <style type="text/css" id="current-color-scheme">
      .ColorScheme-Text {
        color:#808080;
      }
      </style>
  </defs>
 <path 
    style="fill:currentColor;fill-opacity:1;stroke:none" 
	d="m14.292969 3l-6.125 6.125-1.875 1.875 1.875 1.875 6.125 6.125.707031-.707031-6.125-6.125-1.167969-1.167969 1.167969-1.167969 6.125-6.125-.707031-.707031"
    class="ColorScheme-Text"
    />  
</svg>

<svg xmlns="http://www.w3.org/2000/svg" version="1.1" viewBox="0 0 22 22">
 <defs>
  <style id="current-color-scheme" type="text/css">
   .ColorScheme-Text { color:#808080; }
  </style>
 </defs>
 <path class="ColorScheme-Text" d="M 14.293,3 8.168,9.125 6.293,11 8.168,12.875 14.293,19 15,18.293 8.875,12.168 7.707,11 8.875,9.832 15,3.707 14.293,3" style="color:#808080;fill:currentColor"/>
</svg>
